Numix-GalliumOS/16/status/task-past-due.svg

<?xml version="1.0" encoding="UTF-8" standalone="no"?>
<svg
   xmlns:dc="http://purl.org/dc/elements/1.1/"
   xmlns:cc="http://creativecommons.org/ns#"
   xmlns:rdf="http://www.w3.org/1999/02/22-rdf-syntax-ns#"
   xmlns:svg="http://www.w3.org/2000/svg"
   xmlns="http://www.w3.org/2000/svg"
   xmlns:sodipodi="http://sodipodi.sourceforge.net/DTD/sodipodi-0.dtd"
   xmlns:inkscape="http://www.inkscape.org/namespaces/inkscape"
   viewBox="0 0 16 16"
   id="svg2"
   version="1.1"
   inkscape:version="0.91 r13725"
   sodipodi:docname="task-past-due.svg"
   width="16"
   height="16">
  <metadata
     id="metadata98">
    <rdf:RDF>
      <cc:Work
         rdf:about="">
        <dc:format>image/svg+xml</dc:format>
        <dc:type
           rdf:resource="http://purl.org/dc/dcmitype/StillImage" />
        <dc:title></dc:title>
      </cc:Work>
    </rdf:RDF>
  </metadata>
  <sodipodi:namedview
     pagecolor="#ffffff"
     bordercolor="#666666"
     borderopacity="1"
     objecttolerance="10"
     gridtolerance="10"
     guidetolerance="10"
     inkscape:pageopacity="0"
     inkscape:pageshadow="2"
     inkscape:window-width="1262"
     inkscape:window-height="704"
     id="namedview96"
     showgrid="false"
     inkscape:zoom="11.313708"
     inkscape:cx="7.1236623"
     inkscape:cy="8.5973327"
     inkscape:window-x="8"
     inkscape:window-y="27"
     inkscape:window-maximized="0"
     inkscape:current-layer="svg2"
     inkscape:object-nodes="true"
     inkscape:snap-smooth-nodes="true">
    <inkscape:grid
       type="xygrid"
       id="grid4360" />
  </sodipodi:namedview>
  <defs
     id="defs4">
    <path
       id="SVGCleanerId_0"
       d="m 14,12 20,0 c 1.105,0 2,0.895 2,2 l 0,20 c 0,1.105 -0.895,2 -2,2 l -20,0 c -1.105,0 -2,-0.895 -2,-2 l 0,-20 c 0,-1.105 0.895,-2 2,-2 m 0,0"
       inkscape:connector-curvature="0" />
    <clipPath
       id="clipPath-543229327">
      <g
         transform="translate(0,-1004.3622)"
         id="g3857">
        <path
           inkscape:connector-curvature="0"
           d="m -24,13 c 0,1.105 -0.672,2 -1.5,2 -0.828,0 -1.5,-0.895 -1.5,-2 0,-1.105 0.672,-2 1.5,-2 0.828,0 1.5,0.895 1.5,2 z"
           transform="matrix(15.333333,0,0,11.5,414.99999,878.8622)"
           style="fill:#1890d0"
           id="path3859" />
      </g>
    </clipPath>
  </defs>
  <path
     sodipodi:nodetypes="cssssssc"
     id="path3893"
     style="fill:#e6b07f;fill-opacity:1;fill-rule:evenodd;stroke:none"
     d="m 13,3 c 1,0 1,0 1,1 l 0,10 c 0,1 0,1 -1,1 l -9.9999999,0 c -1,0 -1,0 -1,-1 l 0,-10 c 0,-1 0,-1 1,-1"
     inkscape:connector-curvature="0" />
  <path
     sodipodi:nodetypes="ccccccc"
     id="path3895"
     style="fill:#ffffff;fill-opacity:1;fill-rule:nonzero;stroke:none"
     d="M 12,3 4.0000001,3 4,7 6,6 8,7 10,6 12,7"
     inkscape:connector-curvature="0" />
  <path
     sodipodi:nodetypes="cccc"
     id="path3897"
     style="fill:#aaaaaa;fill-opacity:1;fill-rule:nonzero;stroke:none"
     d="m 5.0000001,1 0,3 L 11,4 11,1"
     inkscape:connector-curvature="0" />
  <g
     id="g34"
     transform="translate(0,-32)" />
</svg>

<svg xmlns="http://www.w3.org/2000/svg" viewBox="0 0 16 16">
 <path d="m 13 3 c 1 0 1 0 1 1 l 0 10 c 0 1 0 1 -1 1 l -10 0 c -1 0 -1 0 -1 -1 l 0 -10 c 0 -1 0 -1 1 -1" style="fill:#e6b07f;fill-opacity:1;stroke:none;fill-rule:evenodd"/>
 <path d="m 12 3 -8 0 0 4 2 -1 2 1 2 -1 2 1" style="fill:#fff;fill-opacity:1;stroke:none;fill-rule:nonzero"/>
 <path d="m 5 1 0 3 l 6 0 0 -3" style="fill:#aaa;fill-opacity:1;stroke:none;fill-rule:nonzero"/>
</svg>
